X:1
T:Title
%%score { ( 1 4 ) | ( 2 3 ) }
L:1/8
M:4/4
K:F
V:1 treble nm="Grand Piano"
V:4 treble 
V:2 bass 
V:3 bass 
V:1
 z4 z2[Q:1/4=94] C2 | F>G AF [EG]>[FA] [GB][EG] | [FA][GB][Ac][Bd] [Ac]3 [FA] | %3
 [GB]>A [CEG][CGB] [CFA]>[EG] [A,F][CFA] | [=B,DG]2 [G,B,D][B,FA] [CEG]3 C | %5
 F>G AF [EG]>[FA] [GB][EG] | [FA][GB][Ac][Bd] [Ac]3 A | A2 AA G c2 d | e2 d>d z2 B,2 | %9
 c2 d>c A3 F | E>[EG] [EB]2 [EB]3 [EG] | [CE]>[EG] [EB]2 [EB]3 [EG] | z2 [Fd]2 z4 | c2 d>c A3 F | %14
 [DG]>[DG] [DA]2 [DB]2 [DG]2 | [CA] [Fc]2 [FA] F2 G2 |[M:3/4] F6 |] %17
V:2
 z4 z2 [F,A,]2 | A,2 z2 z4 | [F,C]2 [F,F][F,F] [F,F]3 [F,C] | z z/ F/ C,C, z z/ B,/ F,F, | %4
 G,2 G,,G,, C,3 [C,B,] | A,2 z2 z4 | [F,C]2 [F,F][F,F] [F,F]3 [F,CF] | %7
 [F,CF]2 [^F,C_E][F,CE][K:treble] [G,C=E] [G,CE]2 [G,=B,F] | %8
 [G,CG]2 [G,=B,F]>[G,B,F][K:bass] C2 z2 | [F,A,F]2 [F,B,F]>[F,A,F] [F,CF]3 [F,A,C] | %10
 [C,G,C]>[C,C] [C,G,]2 [C,G,]3 [C,C] | [C,G,]>[C,C] [C,G,]2 [C,G,]3 [C,C] | %12
 [F,C]>[F,C] .[B,,B,]2 [F,A,F]4 | [F,A,F]2 [F,B,F]>[F,A,F] [F,CF]3 [F,A,C] | %14
 [B,,G,]>[B,,G,] [A,,^F,]2 [G,,G,]2 [B,,G,]2 | [C,F,] [C,A,]2 [C,C] [C,A,C]2 [C,B,C]2 | %16
[M:3/4] [F,A,C]6 |] %17
V:3
 x8 | [F,C]->[F,B,C] [F,C][F,A,C] [C,C]2 [C,C][C,C] | x8 | [C,C]2 z2 F,2 z2 | x8 | %5
 [F,C]->[F,B,C] [F,C][F,A,C] [C,C]2 [C,C][C,C] | x8 | x4[K:treble] x4 | z4[K:bass] C,4 | x8 | x8 | %11
 x8 | x8 | x8 | x8 | x8 |[M:3/4] x6 |] %17
V:4
 x8 | x8 | x8 | x8 | x8 | x8 | x8 | x8 | z4 [Ec]4 | x8 | x8 | x8 | [FA]>[FA] z D, c4 | x8 | x8 | %15
 x8 |[M:3/4] x6 |] %17

